X: 26
T: Castle Donovan
C: anon.
O: Ireland
B: Francis O'Neill: "The Dance Music of Ireland" (1907) no. 26
R: Double jig
Z: Transcribed by Frank Nordberg - http://www.musicaviva.com
F: http://www.musicaviva.com/abc/tunes/ireland/oneill-1001/oneill-1001-002
6.abc
M: 6/8
L: 1/8
Q: 3/8=128
K: G
G/A/|MB3 ABA|GAG GBd|edd gdB|BAG Adc|BcB ABA|GAG GBd|edd gdB|cAF G2:|
d|gfg efg|fag fed|gfg efg|afd d2c|BcB ABA|GAG GBd|edd gdB|cAF G2:|
W:
W:
W: From Musica Viva - http://www.musicaviva.com
W: the Internet center for free sheet music downloads.


